X: 3
T: Counting The Coppers
R: reel
M: 4/4
L: 1/8
K: Dmaj
B|~A3d B2dB|AD (3FED FAdc|BEED ~E3A|(3Bcd ef dBAF|
D2 (3FED FAdB|ADFA defg|afge fdec|Aceg fdd:|
|:e|fd~d2 adbd|ad~d2 f2gf|eA~A2 eAfA|ecAc efga|
fd~d2 adbd|ad~d2 fgaf|gfec Acef|gecd edd:|

